X:1
T: Marquis Hansley's Reel
C:
R:Reel
Q: 232
K:D
M:4/4
L:1/8
|:((3GFE) |D2 FD AD FD|C2 CA, EA, CA,|D2 FD AD FD|((3Bcd) ((3efg) fd dz|
D2 FD AD FD|C2 CA, EA, CA,|D2 FD AD FD|((3Bcd) ((3efg) fd dA|
d2 f2 ge fd|B2 ed cA Bc|d2 f2 ge fd|((3Bcd) ((3efg) fd d2|
d2 f2 ge fd|B2 ed cA Bg|((3fgf) ((3edc) ((3dcB) ((3AGF)|((3Bcd) ((3ef^g) fd d:|
